X: 2
T: The Mortgage Burn
R: reel
M: 4/4
L: 1/8
K: Amaj
|: cEBE AEFA | cEBE AEFA | BFBc BFBc | dBcA BAFA |
cEBE AEFA | cEBE AEFA | dBB2 BAFE | FABc A4 :|
cAA2 eAce | fafe cABA | cAA2 eAce | fcBA F2AB |
cAA2 eAce | fafe cABA | dBB2 BAFE | FABc A4 |
cAA2 eAce | fafe cABA | cAA2 eAce | fcBA F3E |
FABc A2ce | faec BAFA | dBB2 BAFE | FABc A4 |


Tune 2047	Setting 2047

